src/assets/LoadBoxIconWhite.svg

<svg width="27" height="27" viewBox="0 0 27 27" fill="none" xmlns="http://www.w3.org/2000/svg">
<path fill-rule="evenodd" clip-rule="evenodd" d="M13.5006 0L16.4558 1.19273L3.92179 6.25417C3.90954 6.2591 3.89746 6.26442 3.88559 6.27011L0.927955 5.0751L13.5006 0ZM17.992 1.81359L21.5795 3.26151L8.81256 8.41749C8.69436 8.46518 8.59537 8.54725 8.53004 8.65176C8.4647 8.75627 8.43643 8.87774 8.44934 8.99848C8.44723 9.02045 8.44643 9.0425 8.44693 9.06455V15.1592L7.13886 13.3058C7.05734 13.1904 6.93403 13.1071 6.79207 13.0714C6.65011 13.0358 6.49925 13.0502 6.36778 13.1121L4.82682 13.8389V7.12907L17.992 1.81359ZM23.1132 3.88009L26.0733 5.0751L13.4994 10.1502L10.543 8.95747L23.0782 3.89604C23.0905 3.8911 23.1025 3.88578 23.1144 3.88009H23.1132ZM0 5.93861L3.62011 7.40019V14.7605C3.62022 14.8575 3.64655 14.9528 3.69661 15.0375C3.74667 15.1222 3.81881 15.1934 3.90618 15.2444C3.99355 15.2954 4.09327 15.3245 4.19589 15.3289C4.2985 15.3334 4.40062 15.313 4.49256 15.2697L6.42932 14.355L8.51571 17.3078L8.51812 17.3123C8.58448 17.4293 8.69203 17.5208 8.82221 17.5709L8.82463 17.5732C8.90832 17.6045 8.99829 17.6181 9.08816 17.613C9.17804 17.6079 9.26562 17.5842 9.34472 17.5436L9.34713 17.5413C9.4531 17.486 9.539 17.4019 9.59366 17.2999C9.64832 17.1979 9.66922 17.0828 9.65363 16.9694V9.83807L12.8973 11.1481V27L0 21.7916V5.93861ZM27 5.94089V21.7916L14.1027 27V11.147L27 5.94089Z" fill="white"/>
</svg>

<svg width="27" height="27" fill="none" xmlns="http://www.w3.org/2000/svg"><path fill-rule="evenodd" clip-rule="evenodd" d="M13.5 0l2.956 1.193L3.922 6.254a.615.615 0 00-.036.016L.928 5.075 13.501 0zm4.492 1.814l3.587 1.448L8.813 8.417a.594.594 0 00-.283.235.544.544 0 00-.08.346.558.558 0 00-.003.067v6.094l-1.308-1.853a.603.603 0 00-.347-.235.636.636 0 00-.424.041l-1.541.727v-6.71l13.165-5.315zm5.121 2.066l2.96 1.195L13.5 10.15l-2.956-1.193 12.535-5.061a.616.616 0 00.036-.016zM0 5.94L3.62 7.4v7.36a.54.54 0 00.077.277c.05.085.122.156.21.207a.629.629 0 00.586.026l1.936-.915 2.087 2.953.002.004a.593.593 0 00.304.259l.003.002a.648.648 0 00.52-.03l.002-.002a.586.586 0 00.247-.241.542.542 0 00.06-.33V9.837l3.243 1.31V27L0 21.792V5.939zm27 .002v15.85L14.103 27V11.147L27 5.941z" fill="#fff"/></svg>
